X:0603
T:Rothesay Country Dance
P:Dumfries House
C:J. Riddell 1766
R:Jig (8x48) ABB
B:RSCDS 6-3
Z:Anselm Lingnau <anselm@strathspey.org>
M:6/8
L:1/8
K:G
G|"G"G3 G2g|dBG GAB|"C"cGE EFG|"D"AFD DFE|\
  "G"G3 G2g|dBG GAB|"Am/C"cEA "D"{G}FEF|"G"G3-G2 d|
  "G"G3 G2g|dBG GAB|"Am"cde "G/B"dcB|"D7"AFD DEF|\
  "G"G3 G2g|"G/B"dBG GAB|"Am"cEA "D7"FEF|"G"G3-G2\
|:B/c/|
  "G"dBd dBd|"C"gag gfe|"G"dBd dcB|"D"AFD D2 B/c/|\
  "G"dBd dBd|"C"gag gfe|dcB "D"AGF|"G"G3 G2 B/c/|
  "G"dBd dBd|"C"gag gfe|"G"dBd dcB|"D"AFD D2 B/c/|\
  "G"dBd "C"ece|"D7"fdf "G"gfe|dcB "D7"Agf|"G"gdB G2:|

